X: 40
T:Trip to Athlone
R:Jig
E:10
M:6/8
L:1/8
Q:3/8=120
K:D
B|ABA ~D3|d=cA AGE|ABA ABc|dAB cde|
ABA ~D3|d=cA AGE|GFG Ade|fdc d2:|
e|fed edc|Add cde|fed edc|ABc def|
~g3 age|ed=c AGE|~A3 Ade|fdc d2:|
